file/mit.svg

<?xml version="1.0" encoding="UTF-8" standalone="no"?>
<!DOCTYPE svg PUBLIC "-//W3C//DTD SVG 1.1//EN" "http://www.w3.org/Graphics/SVG/1.1/DTD/svg11.dtd">
<svg width="100%" height="100%" viewBox="0 0 560 400" version="1.1" xmlns="http://www.w3.org/2000/svg" xmlns:xlink="http://www.w3.org/1999/xlink" xml:space="preserve" xmlns:serif="http://www.serif.com/" style="fill-rule:evenodd;clip-rule:evenodd;">
    <g transform="matrix(1.18616,0,0,1.18616,79.2422,101.549)">
        <path d="M17.5,0L17.5,166M74.5,0L74.5,113M131.5,0L131.5,166M188.5,0L188.5,33M246.5,53L246.5,166" style="fill-rule:nonzero;stroke:rgb(163,31,52);stroke-width:35px;"/>
        <path d="M188.5,53L188.5,166" style="fill:none;fill-rule:nonzero;stroke:rgb(138,139,140);stroke-width:35px;"/>
        <path d="M229,16.5L321,16.5" style="fill:none;fill-rule:nonzero;stroke:rgb(163,31,52);stroke-width:33px;"/>
    </g>
</svg>

<svg clip-rule="evenodd" fill-rule="evenodd" viewBox="0 0 560 400" xmlns="http://www.w3.org/2000/svg"><g transform="matrix(1.18616 0 0 1.18616 79.2422 101.549)"><path d="m17.5 0v166m57-166v113m57-113v166m57-166v33m58 20v113" fill-rule="nonzero" stroke="#a31f34" stroke-width="35"/><g fill="none"><path d="m188.5 53v113" stroke="#8a8b8c" stroke-width="35"/><path d="m229 16.5h92" stroke="#a31f34" stroke-width="33"/></g></g></svg>
